src/icons/main-reorder.svg

<svg enable-background="new 0 0 12 13" viewBox="0 0 12 13" xmlns="http://www.w3.org/2000/svg"><path d="m6 0c-.1 0-.2 0-.3.1l-1.6 1.5c-.2.2-.1.6.3.6h3.2c.4 0 .5-.4.3-.6l-1.6-1.5c-.1-.1-.2-.1-.3-.1zm-5.3 3.4c-.2 0-.5.1-.6.3s-.1.5 0 .6c.1.2.3.3.6.3h10.6c.2 0 .5-.1.6-.3s.1-.4 0-.6-.3-.3-.6-.3zm0 2.5c-.3 0-.5.1-.6.3s-.1.4 0 .6.3.3.6.3h10.6c.2 0 .5-.1.6-.3s.1-.4 0-.6-.3-.3-.6-.3zm0 2.4c-.2 0-.5.1-.6.3s-.1.5 0 .7.3.3.6.3h10.6c.2 0 .5-.1.6-.3s.1-.4 0-.6-.3-.3-.6-.3h-10.6zm3.7 2.5c-.4 0-.5.4-.3.6l1.5 1.4c.2.2.5.2.7 0l1.5-1.4c.2-.2.1-.6-.3-.6z" fill="#4d5969"/></svg>

<?xml version="1.0" encoding="utf-8"?>
<!-- Generator: Adobe Illustrator 20.1.0, SVG Export Plug-In . SVG Version: 6.00 Build 0)  -->
<svg version="1.1" id="Layer_1" xmlns="http://www.w3.org/2000/svg" xmlns:xlink="http://www.w3.org/1999/xlink" x="0px" y="0px"
	 viewBox="0 0 12 13" style="enable-background:new 0 0 12 13;" xml:space="preserve">
<style type="text/css">
	.st0{fill:#4D5969;}
</style>
<title>HDL/Icon/Standard/reorder_2</title>
<desc>Created with Sketch.</desc>
<g id="Colors">
	<g id="Main-Icons" transform="translate(-618.000000, -1253.000000)">
		<g id="Reorder-2" transform="translate(601.000000, 1235.000000)">
			<g id="HDL_x2F_Icon_x2F_Standard_x2F_reorder" transform="translate(17.000000, 18.000000)">
				<path id="Shape" class="st0" d="M6,0C5.9,0,5.8,0,5.7,0.1L4.1,1.6C3.9,1.8,4,2.2,4.4,2.2h3.2c0.4,0,0.5-0.4,0.3-0.6L6.3,0.1
					C6.2,0,6.1,0,6,0z M0.7,3.4c-0.2,0-0.5,0.1-0.6,0.3C0,3.9,0,4.2,0.1,4.3c0.1,0.2,0.3,0.3,0.6,0.3h10.6c0.2,0,0.5-0.1,0.6-0.3
					c0.1-0.2,0.1-0.4,0-0.6c-0.1-0.2-0.3-0.3-0.6-0.3H0.7z M0.7,5.9C0.4,5.9,0.2,6,0.1,6.2C0,6.4,0,6.6,0.1,6.8
					C0.2,7,0.4,7.1,0.7,7.1h10.6c0.2,0,0.5-0.1,0.6-0.3c0.1-0.2,0.1-0.4,0-0.6c-0.1-0.2-0.3-0.3-0.6-0.3H0.7z M0.7,8.3
					c-0.2,0-0.5,0.1-0.6,0.3C0,8.8,0,9.1,0.1,9.3c0.1,0.2,0.3,0.3,0.6,0.3h10.6c0.2,0,0.5-0.1,0.6-0.3c0.1-0.2,0.1-0.4,0-0.6
					c-0.1-0.2-0.3-0.3-0.6-0.3H0.7z M4.4,10.8c-0.4,0-0.5,0.4-0.3,0.6l1.5,1.4c0.2,0.2,0.5,0.2,0.7,0l1.5-1.4
					c0.2-0.2,0.1-0.6-0.3-0.6H4.4z"/>
			</g>
		</g>
	</g>
</g>
</svg>
